svg/SJJB-OpenStreetMapIcons/landuse/grass.svg

<?xml version="1.0" encoding="UTF-8" standalone="no"?>
<!-- Created with Inkscape (http://www.inkscape.org/) -->

<svg
   xmlns:dc="http://purl.org/dc/elements/1.1/"
   xmlns:cc="http://creativecommons.org/ns#"
   xmlns:rdf="http://www.w3.org/1999/02/22-rdf-syntax-ns#"
   xmlns:svg="http://www.w3.org/2000/svg"
   xmlns="http://www.w3.org/2000/svg"
   xmlns:sodipodi="http://sodipodi.sourceforge.net/DTD/sodipodi-0.dtd"
   xmlns:inkscape="http://www.inkscape.org/namespaces/inkscape"
   version="1.0"
   width="580"
   height="580"
   id="svg2"
   sodipodi:version="0.32"
   inkscape:version="0.47 r22583"
   sodipodi:docname="landuse_grass.svg"
   inkscape:output_extension="org.inkscape.output.svg.inkscape">
  <metadata
     id="metadata10">
    <rdf:RDF>
      <cc:Work
         rdf:about="">
        <dc:format>image/svg+xml</dc:format>
        <dc:type
           rdf:resource="http://purl.org/dc/dcmitype/StillImage" />
        <cc:license
           rdf:resource="http://web.resource.org/cc/PublicDomain" />
        <dc:language>en</dc:language>
        <dc:title></dc:title>
      </cc:Work>
    </rdf:RDF>
  </metadata>
  <sodipodi:namedview
     inkscape:window-height="1003"
     inkscape:window-width="1400"
     inkscape:pageshadow="2"
     inkscape:pageopacity="0.0"
     guidetolerance="10.0"
     gridtolerance="10.0"
     objecttolerance="10.0"
     borderopacity="1.0"
     bordercolor="#666666"
     pagecolor="#ffffff"
     id="base"
     showgrid="false"
     inkscape:zoom="0.5"
     inkscape:cx="209.44222"
     inkscape:cy="-102.60565"
     inkscape:window-x="0"
     inkscape:window-y="20"
     inkscape:current-layer="svg2"
     showguides="true"
     inkscape:guide-bbox="true"
     inkscape:window-maximized="0" />
  <defs
     id="defs4">
    <inkscape:perspective
       sodipodi:type="inkscape:persp3d"
       inkscape:vp_x="0 : 290 : 1"
       inkscape:vp_y="0 : 1000 : 0"
       inkscape:vp_z="580 : 290 : 1"
       inkscape:persp3d-origin="290 : 193.33333 : 1"
       id="perspective12" />
    <style
       type="text/css"
       id="style6">
   
    .fil0 {fill:#EF7900}
   
  </style>
    <inkscape:perspective
       id="perspective6807"
       inkscape:persp3d-origin="29.116032 : 19.410688 : 1"
       inkscape:vp_z="58.232063 : 29.116032 : 1"
       inkscape:vp_y="0 : 1000 : 0"
       inkscape:vp_x="0 : 29.116032 : 1"
       sodipodi:type="inkscape:persp3d" />
    <inkscape:perspective
       id="perspective6954"
       inkscape:persp3d-origin="290 : 193.33333 : 1"
       inkscape:vp_z="580 : 290 : 1"
       inkscape:vp_y="0 : 1000 : 0"
       inkscape:vp_x="0 : 290 : 1"
       sodipodi:type="inkscape:persp3d" />
    <inkscape:perspective
       id="perspective2541"
       inkscape:persp3d-origin="240 : 160 : 1"
       inkscape:vp_z="480 : 240 : 1"
       inkscape:vp_y="0 : 1000 : 0"
       inkscape:vp_x="0 : 240 : 1"
       sodipodi:type="inkscape:persp3d" />
    <inkscape:perspective
       id="perspective2750"
       inkscape:persp3d-origin="215 : 143.33333 : 1"
       inkscape:vp_z="430 : 215 : 1"
       inkscape:vp_y="0 : 1000 : 0"
       inkscape:vp_x="0 : 215 : 1"
       sodipodi:type="inkscape:persp3d" />
    <inkscape:perspective
       id="perspective2830"
       inkscape:persp3d-origin="0.5 : 0.33333333 : 1"
       inkscape:vp_z="1 : 0.5 : 1"
       inkscape:vp_y="0 : 1000 : 0"
       inkscape:vp_x="0 : 0.5 : 1"
       sodipodi:type="inkscape:persp3d" />
    <inkscape:perspective
       id="perspective3648"
       inkscape:persp3d-origin="0.5 : 0.33333333 : 1"
       inkscape:vp_z="1 : 0.5 : 1"
       inkscape:vp_y="0 : 1000 : 0"
       inkscape:vp_x="0 : 0.5 : 1"
       sodipodi:type="inkscape:persp3d" />
    <inkscape:perspective
       id="perspective3675"
       inkscape:persp3d-origin="0.5 : 0.33333333 : 1"
       inkscape:vp_z="1 : 0.5 : 1"
       inkscape:vp_y="0 : 1000 : 0"
       inkscape:vp_x="0 : 0.5 : 1"
       sodipodi:type="inkscape:persp3d" />
    <inkscape:perspective
       id="perspective3736"
       inkscape:persp3d-origin="0.5 : 0.33333333 : 1"
       inkscape:vp_z="1 : 0.5 : 1"
       inkscape:vp_y="0 : 1000 : 0"
       inkscape:vp_x="0 : 0.5 : 1"
       sodipodi:type="inkscape:persp3d" />
  </defs>
  <g
     id="g1327">
    <path
       d="M 66.275,1.768 C 24.94,1.768 1.704,23.139 1.704,66.804 L 1.704,516.927 C 1.704,557.771 22.598,579.156 63.896,579.156 L 515.92,579.156 C 557.227,579.156 578.149,558.84 578.149,516.927 L 578.149,66.804 C 578.149,24.203 557.227,1.768 514.627,1.768 C 514.624,1.768 66.133,1.625 66.275,1.768 z"
       style="fill:#111111;stroke:#eeeeee;stroke-width:3.40799999"
       id="path1329" />
  </g>
  <g
     id="g3779"
     transform="matrix(0.74835908,0,0,0.74835908,21.4084,4.6344149)"
     style="stroke:#ffffff;stroke-opacity:1">
    <path
       style="fill:none;stroke:#ffffff;stroke-width:15.57324791;stroke-linecap:round;stroke-linejoin:round;stroke-miterlimit:4;stroke-opacity:1;stroke-dasharray:none"
       d="m 219.43574,376.07932 0.44048,-111.44093"
       id="path3781"
       sodipodi:nodetypes="cc" />
    <path
       style="fill:none;stroke:#ffffff;stroke-width:15.57324791;stroke-linecap:round;stroke-linejoin:round;stroke-miterlimit:4;stroke-opacity:1;stroke-dasharray:none"
       d="m 285.43186,303.99208 -35.23824,72.23839"
       id="path3783"
       sodipodi:nodetypes="cc" />
    <path
       style="fill:none;stroke:#ffffff;stroke-width:15.57324791;stroke-linecap:round;stroke-linejoin:round;stroke-miterlimit:4;stroke-opacity:1;stroke-dasharray:none"
       d="m 329.55523,332.03152 -43.16684,44.0478"
       id="path3785"
       sodipodi:nodetypes="cc" />
    <path
       id="path3787"
       d="m 159.34959,300.90874 30.39298,75.32173"
       style="fill:none;stroke:#ffffff;stroke-width:15.57324791;stroke-linecap:round;stroke-linejoin:round;stroke-miterlimit:4;stroke-opacity:1;stroke-dasharray:none"
       sodipodi:nodetypes="cc" />
    <path
       id="path3789"
       d="m 110.82144,333.35295 42.72636,42.72637"
       style="fill:none;stroke:#ffffff;stroke-width:15.57324791;stroke-linecap:round;stroke-linejoin:round;stroke-miterlimit:4;stroke-opacity:1;stroke-dasharray:none"
       sodipodi:nodetypes="cc" />
  </g>
  <g
     transform="matrix(0.74835908,0,0,0.74835908,221.4084,-91.36559)"
     id="g3791"
     style="stroke:#ffffff;stroke-opacity:1">
    <path
       sodipodi:nodetypes="cc"
       id="path3793"
       d="m 219.43574,376.07932 0.44048,-111.44093"
       style="fill:none;stroke:#ffffff;stroke-width:15.57324791;stroke-linecap:round;stroke-linejoin:round;stroke-miterlimit:4;stroke-opacity:1;stroke-dasharray:none" />
    <path
       sodipodi:nodetypes="cc"
       id="path3795"
       d="m 285.43186,303.99208 -35.23824,72.23839"
       style="fill:none;stroke:#ffffff;stroke-width:15.57324791;stroke-linecap:round;stroke-linejoin:round;stroke-miterlimit:4;stroke-opacity:1;stroke-dasharray:none" />
    <path
       sodipodi:nodetypes="cc"
       id="path3797"
       d="m 329.55523,332.03152 -43.16684,44.0478"
       style="fill:none;stroke:#ffffff;stroke-width:15.57324791;stroke-linecap:round;stroke-linejoin:round;stroke-miterlimit:4;stroke-opacity:1;stroke-dasharray:none" />
    <path
       sodipodi:nodetypes="cc"
       style="fill:none;stroke:#ffffff;stroke-width:15.57324791;stroke-linecap:round;stroke-linejoin:round;stroke-miterlimit:4;stroke-opacity:1;stroke-dasharray:none"
       d="m 159.34959,300.90874 30.39298,75.32173"
       id="path3799" />
    <path
       sodipodi:nodetypes="cc"
       style="fill:none;stroke:#ffffff;stroke-width:15.57324791;stroke-linecap:round;stroke-linejoin:round;stroke-miterlimit:4;stroke-opacity:1;stroke-dasharray:none"
       d="m 110.82144,333.35295 42.72636,42.72637"
       id="path3801" />
  </g>
  <g
     style="stroke:#ffffff;stroke-opacity:1"
     transform="matrix(0.74835908,0,0,0.74835908,125.4084,154.63442)"
     id="g3805">
    <path
       sodipodi:nodetypes="cc"
       id="path3807"
       d="m 219.43574,376.07932 0.44048,-111.44093"
       style="fill:none;stroke:#ffffff;stroke-width:15.57324791;stroke-linecap:round;stroke-linejoin:round;stroke-miterlimit:4;stroke-opacity:1;stroke-dasharray:none" />
    <path
       sodipodi:nodetypes="cc"
       id="path3809"
       d="m 285.43186,303.99208 -35.23824,72.23839"
       style="fill:none;stroke:#ffffff;stroke-width:15.57324791;stroke-linecap:round;stroke-linejoin:round;stroke-miterlimit:4;stroke-opacity:1;stroke-dasharray:none" />
    <path
       sodipodi:nodetypes="cc"
       id="path3811"
       d="m 329.55523,332.03152 -43.16684,44.0478"
       style="fill:none;stroke:#ffffff;stroke-width:15.57324791;stroke-linecap:round;stroke-linejoin:round;stroke-miterlimit:4;stroke-opacity:1;stroke-dasharray:none" />
    <path
       sodipodi:nodetypes="cc"
       style="fill:none;stroke:#ffffff;stroke-width:15.57324791;stroke-linecap:round;stroke-linejoin:round;stroke-miterlimit:4;stroke-opacity:1;stroke-dasharray:none"
       d="m 159.34959,300.90874 30.39298,75.32173"
       id="path3813" />
    <path
       sodipodi:nodetypes="cc"
       style="fill:none;stroke:#ffffff;stroke-width:15.57324791;stroke-linecap:round;stroke-linejoin:round;stroke-miterlimit:4;stroke-opacity:1;stroke-dasharray:none"
       d="m 110.82144,333.35295 42.72636,42.72637"
       id="path3815" />
  </g>
</svg>

<svg xmlns="http://www.w3.org/2000/svg" viewBox="0 0 580 580" xmlns:xlink="http://www.w3.org/1999/xlink"><defs><path id="0" d="m219.44 376.08l.44-111.44" stroke-linejoin="round" stroke="#fff" stroke-width="15.573" fill="none" stroke-linecap="round"/><path id="1" d="m329.56 332.03l-43.17 44.05" stroke-linejoin="round" stroke="#fff" stroke-width="15.573" fill="none" stroke-linecap="round"/><path id="2" d="m110.82 333.35l42.726 42.726" stroke-linejoin="round" stroke="#fff" stroke-width="15.573" fill="none" stroke-linecap="round"/></defs><path d="m66.28 1.768c-41.34 0-64.57 21.371-64.57 65.04v450.12c0 40.844 20.894 62.23 62.19 62.23h452.02c41.31 0 62.23-20.316 62.23-62.23v-450.12c0-42.601-20.922-65.04-63.52-65.04-.003 0-448.49-.143-448.35 0z" fill="#111" stroke="#eee" stroke-width="3.408"/><g transform="matrix(.74836 0 0 .74836 21.408 4.634)" stroke="#fff"><use xlink:href="#0"/><path d="m285.43 303.99l-35.24 72.24" fill="none" stroke="#fff" stroke-linejoin="round" stroke-linecap="round" stroke-width="15.573"/><use xlink:href="#1"/><path d="m159.35 300.91l30.393 75.32" fill="none" stroke="#fff" stroke-linejoin="round" stroke-linecap="round" stroke-width="15.573"/><use xlink:href="#2"/></g><g stroke="#fff"><g transform="matrix(.74836 0 0 .74836 221.41-91.37)"><use xlink:href="#0"/><path d="m285.43 303.99l-35.24 72.24" fill="none" stroke="#fff" stroke-linejoin="round" stroke-linecap="round" stroke-width="15.573"/><use xlink:href="#1"/><path d="m159.35 300.91l30.393 75.32" fill="none" stroke="#fff" stroke-linejoin="round" stroke-linecap="round" stroke-width="15.573" id="3"/><use xlink:href="#2"/></g><g transform="matrix(.74836 0 0 .74836 125.41 154.63)"><use xlink:href="#0"/><path d="m285.43 303.99l-35.24 72.24" fill="none" stroke="#fff" stroke-linejoin="round" stroke-linecap="round" stroke-width="15.573"/><use xlink:href="#1"/><use xlink:href="#3"/><use xlink:href="#2"/></g></g></svg>
